X:1
T: Well Done Jack
N:
C:Nathaniel Kynaston (1718)
S:
A:
O:
R:
M:4/4
K:A
I:speed 200
%W:           A1
% voice 1 (1 lines, 37 notes)
K:A
M:4/4
L:1/16
a4 |g4 f2 e2 a4 e4 |g4 f2 e2 f8 |e4 d2 c2 B4 A4 |G4 B4B4 a4 |g4 f2 e2 a4 e4 |g4 f2 e2 f8 |e4 d2 c2 B4 A4 |E4 A4A4 a4 |
%W:         A2
% voice 1 (1 lines, 37 notes)
g4 f2 e2 a4 e4 |g4 f2 e2 f8 |e4 d2 c2 B4 A4 |G4 B4B4 a4 |g4 f2 e2 a4 e4 |g4 f2 e2 f8 |e4 d2 c2 B4 A4 |E4 A4A4 e2 d2 |
%W:         B1
% voice 1 (1 lines, 35 notes)
c4 A4 c4 e4 |a4 c4 d8 |c4 d2 c2 B4 A4 |G4 B4B4 e2 d2 |c4 e4 a4 c4 |d4 a4 c4 a4 |c4 d2 c2 B4 A4 |E4 A4A4 e2 d2 |
%W:         B2
% voice 1 (1 lines, 33 notes)
c4 A4 c4 e4 |a4 c4 d8 |c4 d2 c2 B4 A4 |G4 B4B4 e2 d2 |c4 e4 a4 c4 |d4 a4 c4 a4 |c4 d2 c2 B4 A4 |E4 A4A4 ||
